X:64
T:RVW2/2/64 Died For Love
C:James Punt, East Horndon, Essex, 23 April 1904
L:1/4
Q:1/4=100
M:3/4
I:linebreak $
K:G
"^(Editorial suggestion) " d | (d B) G | (G B) d | (c B) A | G2 g | (g f) e | (d f) a | (g f) e | 
w: Her|fa- * ther|bin * a|no- * ble|knight, her|mo- * ther|bin _ a|la- * dy|
d2 d |$ (d e) f | g2 B | (c d) e | (e d) d | d (B G) | (G B) d | (c B) A | G2 |] 
w: bright, I|bin _ an|on- ly|child _ of|her _ false|lov- yer _|brought _ me|to _ des-|pair.|



